lib/assets/images/card_add.svg

<svg width="40" height="40" viewBox="0 0 40 40" fill="none" xmlns="http://www.w3.org/2000/svg">
<path d="M1 12.4C1 10.1598 1 9.03969 1.43597 8.18404C1.81947 7.43139 2.43139 6.81947 3.18404 6.43597C4.03969 6 5.15979 6 7.4 6H32.6C34.8402 6 35.9603 6 36.816 6.43597C37.5686 6.81947 38.1805 7.43139 38.564 8.18404C39 9.03969 39 10.1598 39 12.4V27.6C39 29.8402 39 30.9603 38.564 31.816C38.1805 32.5686 37.5686 33.1805 36.816 33.564C35.9603 34 34.8402 34 32.6 34H7.4C5.15979 34 4.03969 34 3.18404 33.564C2.43139 33.1805 1.81947 32.5686 1.43597 31.816C1 30.9603 1 29.8402 1 27.6V12.4Z" fill="#F0F2F4"/>
<path fill-rule="evenodd" clip-rule="evenodd" d="M27.8485 20.2313C27.8487 19.7211 27.4353 19.3077 26.9251 19.3079L20.9374 19.3102L20.9424 13.3254C20.9428 12.8152 20.5296 12.402 20.0194 12.4024C19.5093 12.4028 19.0954 12.8167 19.0949 13.3269L19.09 19.3109L13.0693 19.3131C12.5592 19.3133 12.1455 19.7271 12.1453 20.2372C12.1451 20.7474 12.5585 21.1608 13.0686 21.1606L19.0885 21.1583L19.0835 27.1827C19.0831 27.6928 19.4963 28.1061 20.0065 28.1056C20.5166 28.1052 20.9305 27.6913 20.931 27.1812L20.9359 21.1576L26.9244 21.1553C27.4346 21.1551 27.8483 20.7414 27.8485 20.2313Z" fill="#3A83F1"/>
</svg>

<svg width="40" height="40" fill="none" xmlns="http://www.w3.org/2000/svg"><path d="M1 12.4c0-2.24 0-3.36.436-4.216a4 4 0 0 1 1.748-1.748C4.04 6 5.16 6 7.4 6h25.2c2.24 0 3.36 0 4.216.436a4 4 0 0 1 1.748 1.748C39 9.04 39 10.16 39 12.4v15.2c0 2.24 0 3.36-.436 4.216a4 4 0 0 1-1.748 1.748C35.96 34 34.84 34 32.6 34H7.4c-2.24 0-3.36 0-4.216-.436a4 4 0 0 1-1.748-1.748C1 30.96 1 29.84 1 27.6V12.4z" fill="#F0F2F4"/><path fill-rule="evenodd" clip-rule="evenodd" d="M27.849 20.231a.923.923 0 0 0-.924-.923l-5.988.002.005-5.985a.922.922 0 0 0-.923-.923.926.926 0 0 0-.924.925l-.005 5.984-6.02.002a.925.925 0 0 0-.001 1.848l6.02-.003-.005 6.025c0 .51.412.923.922.923s.924-.415.925-.925l.005-6.023 5.988-.003c.51 0 .924-.414.925-.924z" fill="#3A83F1"/></svg>
